lib/svgs/team-graph.svg

<?xml version="1.0" encoding="UTF-8" standalone="no"?>
<svg width="20px" height="20px" viewBox="0 0 20 20" version="1.1" xmlns="http://www.w3.org/2000/svg" xmlns:xlink="http://www.w3.org/1999/xlink">
    <defs></defs>
    <g id="Icons" stroke="none" stroke-width="1" fill="none" fill-rule="evenodd">
        <g id="Web" transform="translate(-433.000000, -2392.000000)" fill="#000000">
            <g id="team/team-graph" transform="translate(433.000000, 2392.000000)">
                <path d="M6.03030303,12.0909091 L3.60606061,12.0909091 C3.24242424,12.0909091 3,12.3333333 3,12.6969697 L3,15.7272727 C3,16.0909091 3.24242424,16.3333333 3.60606061,16.3333333 L6.03030303,16.3333333 C6.39393939,16.3333333 6.63636364,16.0909091 6.63636364,15.7272727 L6.63636364,12.6969697 C6.63636364,12.3333333 6.39393939,12.0909091 6.03030303,12.0909091 L6.03030303,12.0909091 M10.8787879,9.66666667 L8.45454545,9.66666667 C8.09090909,9.66666667 7.84848485,9.90909091 7.84848485,10.2727273 L7.84848485,15.7272727 C7.84848485,16.0909091 8.09090909,16.3333333 8.45454545,16.3333333 L10.8787879,16.3333333 C11.2424242,16.3333333 11.4848485,16.0909091 11.4848485,15.7272727 L11.4848485,10.2727273 C11.4848485,9.90909091 11.2424242,9.66666667 10.8787879,9.66666667 L10.8787879,9.66666667 M15.7272727,7.24242424 L13.3030303,7.24242424 C12.9393939,7.24242424 12.6969697,7.48484848 12.6969697,7.84848485 L12.6969697,15.7272727 C12.6969697,16.0909091 12.9393939,16.3333333 13.3030303,16.3333333 L15.7272727,16.3333333 C16.0909091,16.3333333 16.3333333,16.0909091 16.3333333,15.7272727 L16.3333333,7.84848485 C16.3333333,7.48484848 16.0909091,7.24242424 15.7272727,7.24242424 L15.7272727,7.24242424 M5.42424242,9.06060606 C5.60606061,9.06060606 5.72727273,9 5.84848485,8.87878788 L7.84848485,6.87878788 L9.24242424,8.27272727 C9.48484848,8.51515152 9.84848485,8.51515152 10.0909091,8.27272727 L13.3030303,5.06060606 L13.3030303,6.03030303 C13.3030303,6.39393939 13.5454545,6.63636364 13.9090909,6.63636364 C14.2727273,6.63636364 14.5151515,6.39393939 14.5151515,6.03030303 L14.5151515,3.60606061 C14.5151515,3.54545455 14.5151515,3.42424242 14.4545455,3.36363636 C14.3939394,3.24242424 14.2727273,3.12121212 14.1515152,3.06060606 C14.0909091,3 13.969697,3 13.9090909,3 L11.4848485,3 C11.1212121,3 10.8787879,3.24242424 10.8787879,3.60606061 C10.8787879,3.96969697 11.1212121,4.21212121 11.4848485,4.21212121 L12.4545455,4.21212121 L9.66666667,7 L8.27272727,5.60606061 C8.03030303,5.36363636 7.66666667,5.36363636 7.42424242,5.60606061 L5,8.03030303 C4.75757576,8.27272727 4.75757576,8.63636364 5,8.87878788 C5.12121212,9 5.24242424,9.06060606 5.42424242,9.06060606 L5.42424242,9.06060606" id="Shape"></path>
            </g>
        </g>
    </g>
</svg>

<svg xmlns="http://www.w3.org/2000/svg" viewBox="0 0 20 20">
    <path fill="#000" fill-rule="evenodd" d="M6.03 12.09H3.606c-.364 0-.606.243-.606.607v3.03c0 .364.242.606.606.606H6.03c.364 0 .606-.242.606-.606v-3.03c0-.364-.242-.606-.606-.606m4.849-2.424H8.455c-.364 0-.607.242-.607.606v5.454c0 .364.243.606.607.606h2.424c.363 0 .606-.242.606-.606v-5.454c0-.364-.243-.606-.606-.606m4.848-2.425h-2.424c-.364 0-.606.243-.606.606v7.88c0 .363.242.605.606.605h2.424c.364 0 .606-.242.606-.606V7.848c0-.363-.242-.606-.606-.606M5.424 9.061a.55.55 0 0 0 .424-.182l2-2 1.394 1.394a.586.586 0 0 0 .849 0l3.212-3.212v.97c0 .363.242.605.606.605s.606-.242.606-.606V3.606c0-.06 0-.182-.06-.242a.73.73 0 0 0-.303-.303C14.09 3 13.97 3 13.909 3h-2.424c-.364 0-.606.242-.606.606s.242.606.606.606h.97L9.667 7 8.273 5.606a.586.586 0 0 0-.849 0L5 8.03a.586.586 0 0 0 0 .849.55.55 0 0 0 .424.182"/>
</svg>
